; generated by Slic3r 1.3.0 on 2023-09-18 at 14:00:47

; external perimeters extrusion width = 4.50mm (128.56mm^3/s)
; perimeters extrusion width = 4.50mm (257.12mm^3/s)
; infill extrusion width = 4.50mm (342.83mm^3/s)
; solid infill extrusion width = 4.50mm (85.71mm^3/s)
; top infill extrusion width = 4.50mm (64.28mm^3/s)

; external perimeters extrusion width = 4.50mm (128.56mm^3/s)
; perimeters extrusion width = 4.50mm (257.12mm^3/s)
; infill extrusion width = 4.50mm (342.83mm^3/s)
; solid infill extrusion width = 4.50mm (85.71mm^3/s)
; top infill extrusion width = 4.50mm (64.28mm^3/s)

M107
M104 S205 T0 ; set temperature
M104 S205 T1 ; set temperature
G28 ; home all axes
G1 Z5 F5000 ; lift nozzle

; Filament gcode

; Filament gcode

M109 S205 T0 ; set temperature and wait for it to be reached
M109 S205 T1 ; set temperature and wait for it to be reached
G21 ; set units to millimeters
G90 ; use absolute coordinates
M82 ; use absolute distances for extrusion
G92 E0
T0
G92 E0
G1 Z2.400 F7800.000
G1 E-10.00000 F2400.00000
G92 E0
T1
G92 E0
G1 E-2.00000 F2400.00000
G92 E0
G1 X-104.080 Y-104.080 F7800.000
G1 E2.00000 F2400.00000
G1 F1800
G1 X104.080 Y-104.080 E314.07059
G1 X104.080 Y104.080 E626.14117
G1 X-104.080 Y104.080 E938.21176
G1 X-104.080 Y-103.405 E1249.27040
G1 E1247.27040 F2400.00000
G92 E0
G1 X-108.065 Y-108.065 F7800.000
G1 E2.00000 F2400.00000
G1 F1800
G1 X108.065 Y-108.065 E326.01895
G1 X108.065 Y108.065 E650.03791
G1 X-108.065 Y108.065 E974.05686
G1 X-108.065 Y-107.390 E1297.06387
G1 E1295.06387 F2400.00000
G92 E0
G1 X-112.050 Y-112.050 F7800.000
G1 E2.00000 F2400.00000
G1 F1800
G1 X112.050 Y-112.050 E337.96732
G1 X112.050 Y112.050 E673.93464
G1 X-112.050 Y112.050 E1009.90196
G1 X-112.050 Y-111.375 E1344.85733
G1 X-107.703 Y-110.885 F7800.000
G1 E1342.85733 F2400.00000
G92 E0
G1 X-101.645 Y-98.545 F7800.000
G1 E2.00000 F2400.00000
G1 F1800
G1 X-98.545 Y-101.645 E8.57578
G1 X-92.906 Y-101.645 E17.03529
G1 X-101.645 Y-92.906 E35.57505
G1 X-101.645 Y-87.267 E44.03456
G1 X-87.267 Y-101.645 E74.53788
G1 X-81.628 Y-101.645 E82.99740
G1 X-101.645 Y-81.628 E125.46427
G1 X-101.645 Y-75.989 E133.92379
G1 X-75.989 Y-101.645 E188.35423
G1 X-70.349 Y-101.645 E196.81374
G1 X-101.645 Y-70.349 E263.20774
G1 X-101.645 Y-64.710 E271.66726
G1 X-64.710 Y-101.645 E350.02481
G1 X-59.071 Y-101.645 E358.48433
G1 X-101.645 Y-59.071 E448.80545
G1 X-101.645 Y-53.432 E457.26497
G1 X-53.432 Y-101.645 E559.54964
G1 X-47.793 Y-101.645 E568.00916
G1 X-101.645 Y-47.793 E682.25739
G1 X-101.645 Y-42.154 E690.71690
G1 X-42.154 Y-101.645 E816.92870
G1 X-36.514 Y-101.645 E825.38821
G1 X-101.645 Y-36.514 E963.56356
G1 X-101.645 Y-30.875 E972.02308
G1 X-30.875 Y-101.645 E1122.16199
G1 X-25.236 Y-101.645 E1130.62150
G1 X-101.645 Y-25.236 E1292.72397
G1 X-101.645 Y-19.597 E1301.18349
G1 X-19.597 Y-101.645 E1475.24952
G1 X-13.958 Y-101.645 E1483.70904
G1 X-101.645 Y-13.958 E1669.73862
G1 X-101.645 Y-8.319 E1678.19814
G1 X-8.319 Y-101.645 E1876.19129
G1 X-2.679 Y-101.645 E1884.65081
G1 X-101.645 Y-2.679 E2094.60753
G1 X-101.645 Y2.960 E2103.06705
G1 X2.960 Y-101.645 E2324.98733
G1 X8.599 Y-101.645 E2333.44684
G1 X-101.645 Y8.599 E2567.33068
G1 X-101.645 Y14.238 E2575.79020
G1 X14.238 Y-101.645 E2821.63759
G1 X19.877 Y-101.645 E2830.09712
G1 X-101.645 Y19.877 E3087.90807
G1 X-101.645 Y25.516 E3096.36759
G1 X25.516 Y-101.645 E3366.14211
G1 X31.156 Y-101.645 E3374.60162
G1 X-101.645 Y31.155 E3656.33970
G1 X-101.645 Y36.795 E3664.79921
G1 X36.795 Y-101.645 E3958.50085
G1 X42.434 Y-101.645 E3966.96037
G1 X-101.645 Y42.434 E4272.62557
G1 X-101.645 Y48.073 E4281.08508
G1 X48.073 Y-101.645 E4598.71385
G1 X53.712 Y-101.645 E4607.17336
G1 X-101.645 Y53.712 E4936.76569
G1 X-101.645 Y59.351 E4945.22520
G1 X59.351 Y-101.645 E5286.78107
G1 X64.990 Y-101.645 E5295.24059
G1 X-101.645 Y64.990 E5648.76002
G1 X-101.645 Y70.630 E5657.21954
G1 X70.630 Y-101.645 E6022.70253
G1 X76.269 Y-101.645 E6031.16205
G1 X-101.645 Y76.269 E6408.60860
G1 X-101.645 Y81.908 E6417.06812
G1 X81.908 Y-101.645 E6806.47823
G1 X87.547 Y-101.645 E6814.93775
G1 X-101.645 Y87.547 E7216.31143
G1 X-101.645 Y93.186 E7224.77094
G1 X93.186 Y-101.645 E7638.10817
G1 X98.825 Y-101.645 E7646.56768
G1 X-101.645 Y98.825 E8071.86846
G1 X-101.645 Y101.645 E8076.09822
G1 X-98.825 Y101.645 E8080.32798
G1 X101.645 Y-98.825 E8505.62864
G1 X101.645 Y-93.186 E8514.08816
G1 X-93.186 Y101.645 E8927.42526
G1 X-87.547 Y101.645 E8935.88477
G1 X101.645 Y-87.547 E9337.25832
G1 X101.645 Y-81.908 E9345.71782
G1 X-81.908 Y101.645 E9735.12782
G1 X-76.269 Y101.645 E9743.58733
G1 X101.645 Y-76.269 E10121.03377
G1 X101.645 Y-70.630 E10129.49328
G1 X-70.630 Y101.645 E10494.97616
G1 X-64.990 Y101.645 E10503.43567
G1 X101.645 Y-64.990 E10856.95499
G1 X101.645 Y-59.351 E10865.41450
G1 X-59.351 Y101.645 E11206.97026
G1 X-53.712 Y101.645 E11215.42978
G1 X101.645 Y-53.712 E11545.02198
G1 X101.645 Y-48.073 E11553.48149
G1 X-48.073 Y101.645 E11871.11013
G1 X-42.434 Y101.645 E11879.56965
G1 X101.645 Y-42.434 E12185.23473
G1 X101.645 Y-36.795 E12193.69424
G1 X-36.795 Y101.645 E12487.39576
G1 X-31.155 Y101.645 E12495.85527
G1 X101.645 Y-31.155 E12777.59323
G1 X101.645 Y-25.516 E12786.05275
G1 X-25.516 Y101.645 E13055.82715
G1 X-19.877 Y101.645 E13064.28667
G1 X101.645 Y-19.877 E13322.09749
G1 X101.645 Y-14.238 E13330.55700
G1 X-14.238 Y101.645 E13576.40428
G1 X-8.599 Y101.645 E13584.86380
G1 X101.645 Y-8.599 E13818.74752
G1 X101.645 Y-2.960 E13827.20703
G1 X-2.960 Y101.645 E14049.12719
G1 X2.680 Y101.645 E14057.58670
G1 X101.645 Y2.680 E14267.54330
G1 X101.645 Y8.319 E14276.00282
G1 X8.319 Y101.645 E14473.99585
G1 X13.958 Y101.645 E14482.45536
G1 X101.645 Y13.958 E14668.48483
G1 X101.645 Y19.597 E14676.94434
G1 X19.597 Y101.645 E14851.01025
G1 X25.236 Y101.645 E14859.46976
G1 X101.645 Y25.236 E15021.57211
G1 X101.645 Y30.875 E15030.03162
G1 X30.875 Y101.645 E15180.17041
G1 X36.514 Y101.645 E15188.62993
G1 X101.645 Y36.515 E15326.80516
G1 X101.645 Y42.154 E15335.26467
G1 X42.154 Y101.645 E15461.47634
G1 X47.793 Y101.645 E15469.93585
G1 X101.645 Y47.793 E15584.18396
G1 X101.645 Y53.432 E15592.64347
G1 X53.432 Y101.645 E15694.92803
G1 X59.071 Y101.645 E15703.38754
G1 X101.645 Y59.071 E15793.70854
G1 X101.645 Y64.710 E15802.16805
G1 X64.710 Y101.645 E15880.52549
G1 X70.349 Y101.645 E15888.98500
G1 X101.645 Y70.349 E15955.37888
G1 X101.645 Y75.989 E15963.83839
G1 X75.989 Y101.645 E16018.26871
G1 X81.628 Y101.645 E16026.72822
G1 X101.645 Y81.628 E16069.19498
G1 X101.645 Y87.267 E16077.65449
G1 X87.267 Y101.645 E16108.15768
G1 X92.906 Y101.645 E16116.61720
G1 X101.645 Y92.906 E16135.15683
G1 X101.645 Y98.545 E16143.61635
G1 X98.545 Y101.645 E16150.19242
G1 E16140.19242 F2400.00000
G92 E0
T0
G92 E0
G1 X-124.520 Y-124.520 F7800.000
G1 E10.00000 F2400.00000
G1 F1800
G1 X124.520 Y-124.520 E383.35672
G1 X124.520 Y124.520 E756.71343
G1 X-124.520 Y124.520 E1130.07015
G1 X-124.520 Y-123.845 E1502.41492
G1 E1500.41492 F2400.00000
G92 E0
G1 X-120.535 Y-120.535 F7800.000
G1 E2.00000 F2400.00000
G1 F1800
G1 X120.535 Y-120.535 E363.40835
G1 X120.535 Y120.535 E724.81670
G1 X-120.535 Y120.535 E1086.22505
G1 X-120.535 Y-119.860 E1446.62145
G1 E1444.62145 F2400.00000
G92 E0
G1 X-116.550 Y-116.550 F7800.000
G1 E2.00000 F2400.00000
G1 F1800
G1 X116.550 Y-116.550 E351.45998
G1 X116.550 Y116.550 E700.91997
G1 X-116.550 Y116.550 E1050.37995
G1 X-116.550 Y-115.875 E1398.82798
G1 X-117.715 Y-120.897 F7800.000
G1 E1396.82798 F2400.00000
G92 E0
G1 X-142.180 Y-142.180 F7800.000
G1 E2.00000 F2400.00000
G1 F1800
G1 X142.180 Y-142.180 E428.30842
G1 X142.180 Y142.180 E854.61685
G1 X-142.180 Y142.180 E1280.92527
G1 X-142.180 Y-141.505 E1706.22174
G1 E1704.22174 F2400.00000
G92 E0
G1 X-146.165 Y-146.165 F7800.000
G1 E2.00000 F2400.00000
G1 F1800
G1 X146.165 Y-146.165 E440.25679
G1 X146.165 Y146.165 E878.51358
G1 X-146.165 Y146.165 E1316.77037
G1 X-146.165 Y-145.490 E1754.01521
G1 E1752.01521 F2400.00000
G92 E0
G1 X-150.150 Y-150.150 F7800.000
G1 E2.00000 F2400.00000
G1 F1800
G1 X150.150 Y-150.150 E452.20516
G1 X150.150 Y150.150 E902.41031
G1 X-150.150 Y150.150 E1352.61547
G1 X-150.150 Y-149.475 E1801.80868
G1 X-145.803 Y-148.985 F7800.000
G1 E1799.80868 F2400.00000
G92 E0
G1 X-136.645 Y-139.745 F7800.000
G1 E2.00000 F2400.00000
G1 F1800
G1 X-139.745 Y-136.645 E8.57796
G1 X-139.745 Y-131.005 E17.04184
G1 X-131.005 Y-139.745 E35.58953
G1 X-125.364 Y-139.745 E44.05342
G1 X-139.745 Y-125.364 E74.57085
G1 X-139.745 Y-119.723 E83.03473
G1 X-119.723 Y-139.745 E125.52189
G1 X-114.083 Y-139.745 E133.98578
G1 X-126.873 Y-126.955 E161.12668
G1 X-121.232 Y-126.955 E169.59057
G1 X-108.442 Y-139.745 E196.73147
G1 X-102.801 Y-139.745 E205.19536
G1 X-115.591 Y-126.955 E232.33627
G1 X-109.951 Y-126.955 E240.80015
G1 X-97.161 Y-139.745 E267.94105
G1 X-91.520 Y-139.745 E276.40493
G1 X-104.310 Y-126.955 E303.54584
G1 X-98.669 Y-126.955 E312.00972
G1 X-85.880 Y-139.745 E339.15062
G1 X-80.239 Y-139.745 E347.61451
G1 X-93.029 Y-126.955 E374.75541
G1 X-87.388 Y-126.955 E383.21929
G1 X-74.598 Y-139.745 E410.36019
G1 X-68.958 Y-139.745 E418.82408
G1 X-81.748 Y-126.955 E445.96498
G1 X-76.107 Y-126.955 E454.42887
G1 X-63.317 Y-139.745 E481.56977
G1 X-57.677 Y-139.745 E490.03365
G1 X-70.466 Y-126.955 E517.17455
G1 X-64.826 Y-126.955 E525.63843
G1 X-52.036 Y-139.745 E552.77933
G1 X-46.395 Y-139.745 E561.24321
G1 X-59.185 Y-126.955 E588.38411
G1 X-53.545 Y-126.955 E596.84800
G1 X-40.755 Y-139.745 E623.98891
G1 X-35.114 Y-139.745 E632.45279
G1 X-47.904 Y-126.955 E659.59370
G1 X-42.263 Y-126.955 E668.05758
G1 X-29.473 Y-139.745 E695.19849
G1 X-23.833 Y-139.745 E703.66237
G1 X-36.623 Y-126.955 E730.80327
G1 X-30.982 Y-126.955 E739.26714
G1 X-18.192 Y-139.745 E766.40806
G1 X-12.552 Y-139.745 E774.87194
G1 X-25.341 Y-126.955 E802.01285
G1 X-19.701 Y-126.955 E810.47674
G1 X-6.911 Y-139.745 E837.61765
G1 X-1.270 Y-139.745 E846.08154
G1 X-14.060 Y-126.955 E873.22245
G1 X-8.420 Y-126.955 E881.68633
G1 X4.370 Y-139.745 E908.82724
G1 X10.011 Y-139.745 E917.29112
G1 X-2.779 Y-126.955 E944.43203
G1 X2.862 Y-126.955 E952.89592
G1 X15.651 Y-139.745 E980.03683
G1 X21.292 Y-139.745 E988.50072
G1 X8.502 Y-126.955 E1015.64163
G1 X14.143 Y-126.955 E1024.10551
G1 X26.933 Y-139.745 E1051.24642
G1 X32.573 Y-139.745 E1059.71030
G1 X19.783 Y-126.955 E1086.85121
G1 X25.424 Y-126.955 E1095.31510
G1 X38.214 Y-139.745 E1122.45601
G1 X43.855 Y-139.745 E1130.91989
G1 X31.065 Y-126.955 E1158.06081
G1 X36.705 Y-126.955 E1166.52469
G1 X49.495 Y-139.745 E1193.66560
G1 X55.136 Y-139.745 E1202.12949
G1 X42.346 Y-126.955 E1229.27041
G1 X47.987 Y-126.955 E1237.73429
G1 X60.776 Y-139.745 E1264.87521
G1 X66.417 Y-139.745 E1273.33910
G1 X53.627 Y-126.955 E1300.48003
G1 X59.268 Y-126.955 E1308.94391
G1 X72.058 Y-139.745 E1336.08482
G1 X77.698 Y-139.745 E1344.54870
G1 X64.908 Y-126.955 E1371.68961
G1 X70.549 Y-126.955 E1380.15350
G1 X83.339 Y-139.745 E1407.29442
G1 X88.979 Y-139.745 E1415.75829
G1 X76.190 Y-126.955 E1442.89920
G1 X81.830 Y-126.955 E1451.36308
G1 X94.620 Y-139.745 E1478.50402
G1 X100.261 Y-139.745 E1486.96789
G1 X87.471 Y-126.955 E1514.10880
G1 X93.111 Y-126.955 E1522.57268
G1 X105.901 Y-139.745 E1549.71359
G1 X111.542 Y-139.745 E1558.17749
G1 X98.752 Y-126.955 E1585.31840
G1 X104.393 Y-126.955 E1593.78227
G1 X117.183 Y-139.745 E1620.92318
G1 X122.823 Y-139.745 E1629.38706
G1 X110.033 Y-126.955 E1656.52797
G1 X115.674 Y-126.955 E1664.99187
G1 X128.464 Y-139.745 E1692.13278
G1 X134.104 Y-139.745 E1700.59666
G1 X121.315 Y-126.955 E1727.73757
G1 X126.955 Y-126.955 E1736.20134
G1 X139.745 Y-139.745 E1763.34223
G1 X139.745 Y-134.104 E1771.80611
G1 X126.955 Y-121.314 E1798.94702
G1 X126.955 Y-115.674 E1807.41089
G1 X139.745 Y-128.464 E1834.55178
G1 X139.745 Y-122.823 E1843.01566
G1 X126.955 Y-110.033 E1870.15655
G1 X126.955 Y-104.393 E1878.62042
G1 X139.745 Y-117.182 E1905.76131
G1 X139.745 Y-111.542 E1914.22519
G1 X126.955 Y-98.752 E1941.36608
G1 X126.955 Y-93.111 E1949.82997
G1 X139.745 Y-105.901 E1976.97086
G1 X139.745 Y-100.261 E1985.43473
G1 X126.955 Y-87.471 E2012.57562
G1 X126.955 Y-81.830 E2021.03950
G1 X139.745 Y-94.620 E2048.18038
G1 X139.745 Y-88.979 E2056.64426
G1 X126.955 Y-76.189 E2083.78515
G1 X126.955 Y-70.549 E2092.24904
G1 X139.745 Y-83.339 E2119.38993
G1 X139.745 Y-77.698 E2127.85381
G1 X126.955 Y-64.908 E2154.99470
G1 X126.955 Y-59.268 E2163.45857
G1 X139.745 Y-72.057 E2190.59946
G1 X139.745 Y-66.417 E2199.06334
G1 X126.955 Y-53.627 E2226.20424
G1 X126.955 Y-47.986 E2234.66811
G1 X139.745 Y-60.776 E2261.80899
G1 X139.745 Y-55.136 E2270.27286
G1 X126.955 Y-42.346 E2297.41375
G1 X126.955 Y-36.705 E2305.87763
G1 X139.745 Y-49.495 E2333.01852
G1 X139.745 Y-43.854 E2341.48239
G1 X126.955 Y-31.065 E2368.62328
G1 X126.955 Y-25.424 E2377.08716
G1 X139.745 Y-38.214 E2404.22805
G1 X139.745 Y-32.573 E2412.69193
G1 X126.955 Y-19.783 E2439.83282
G1 X126.955 Y-14.143 E2448.29670
G1 X139.745 Y-26.933 E2475.43759
G1 X139.745 Y-21.292 E2483.90146
G1 X126.955 Y-8.502 E2511.04235
G1 X126.955 Y-2.861 E2519.50623
G1 X139.745 Y-15.651 E2546.64712
G1 X139.745 Y-10.011 E2555.11100
G1 X126.955 Y2.779 E2582.25189
G1 X126.955 Y8.420 E2590.71577
G1 X139.745 Y-4.370 E2617.85666
G1 X139.745 Y1.271 E2626.32054
G1 X126.955 Y14.060 E2653.46142
G1 X126.955 Y19.701 E2661.92531
G1 X139.745 Y6.911 E2689.06621
G1 X139.745 Y12.552 E2697.53009
G1 X126.955 Y25.342 E2724.67098
G1 X126.955 Y30.982 E2733.13486
G1 X139.745 Y18.192 E2760.27577
G1 X139.745 Y23.833 E2768.73965
G1 X126.955 Y36.623 E2795.88053
G1 X126.955 Y42.263 E2804.34441
G1 X139.745 Y29.474 E2831.48530
G1 X139.745 Y35.114 E2839.94919
G1 X126.955 Y47.904 E2867.09007
G1 X126.955 Y53.545 E2875.55395
G1 X139.745 Y40.755 E2902.69483
G1 X139.745 Y46.395 E2911.15872
G1 X126.955 Y59.185 E2938.29960
G1 X126.955 Y64.826 E2946.76348
G1 X139.745 Y52.036 E2973.90435
G1 X139.745 Y57.677 E2982.36823
G1 X126.955 Y70.467 E3009.50912
G1 X126.955 Y76.107 E3017.97299
G1 X139.745 Y63.317 E3045.11387
G1 X139.745 Y68.958 E3053.57775
G1 X126.955 Y81.748 E3080.71863
G1 X126.955 Y87.388 E3089.18251
G1 X139.745 Y74.598 E3116.32339
G1 X139.745 Y80.239 E3124.78727
G1 X126.955 Y93.029 E3151.92815
G1 X126.955 Y98.670 E3160.39203
G1 X139.745 Y85.880 E3187.53291
G1 X139.745 Y91.520 E3195.99678
G1 X126.955 Y104.310 E3223.13766
G1 X126.955 Y109.951 E3231.60154
G1 X139.745 Y97.161 E3258.74243
G1 X139.745 Y102.802 E3267.20631
G1 X126.955 Y115.591 E3294.34719
G1 X126.955 Y121.232 E3302.81107
G1 X139.745 Y108.442 E3329.95196
G1 X139.745 Y114.083 E3338.41584
G1 X126.955 Y126.873 E3365.55672
G1 E3363.55672 F2400.00000
G92 E0
G1 X136.645 Y139.745 F7800.000
G1 E2.00000 F2400.00000
G1 F1800
G1 X139.745 Y136.645 E8.57777
G1 X139.745 Y131.005 E17.04165
G1 X131.005 Y139.745 E35.58916
G1 X125.364 Y139.745 E44.05305
G1 X139.745 Y125.364 E74.57029
G1 X139.745 Y119.723 E83.03417
G1 X119.723 Y139.745 E125.52115
G1 X114.083 Y139.745 E133.98503
G1 X126.873 Y126.955 E161.12592
G1 X121.232 Y126.955 E169.58981
G1 X108.442 Y139.745 E196.73070
G1 X102.802 Y139.745 E205.19458
G1 X115.591 Y126.955 E232.33547
G1 X109.951 Y126.955 E240.79935
G1 X97.161 Y139.745 E267.94024
G1 X91.520 Y139.745 E276.40412
G1 X104.310 Y126.955 E303.54501
G1 X98.670 Y126.955 E312.00889
G1 X85.880 Y139.745 E339.14978
G1 X80.239 Y139.745 E347.61366
G1 X93.029 Y126.955 E374.75455
G1 X87.388 Y126.955 E383.21844
G1 X74.598 Y139.745 E410.35933
G1 X68.958 Y139.745 E418.82321
G1 X81.748 Y126.955 E445.96409
G1 X76.107 Y126.955 E454.42797
G1 X63.317 Y139.745 E481.56886
G1 X57.677 Y139.745 E490.03275
G1 X70.466 Y126.955 E517.17363
G1 X64.826 Y126.955 E525.63752
G1 X52.036 Y139.745 E552.77840
G1 X46.395 Y139.745 E561.24229
G1 X59.185 Y126.955 E588.38317
G1 X53.545 Y126.955 E596.84706
G1 X40.755 Y139.745 E623.98795
G1 X35.114 Y139.745 E632.45183
G1 X47.904 Y126.955 E659.59273
G1 X42.263 Y126.955 E668.05661
G1 X29.474 Y139.745 E695.19751
G1 X23.833 Y139.745 E703.66139
G1 X36.623 Y126.955 E730.80228
G1 X30.982 Y126.955 E739.26616
G1 X18.192 Y139.745 E766.40705
G1 X12.552 Y139.745 E774.87094
G1 X25.342 Y126.955 E802.01184
G1 X19.701 Y126.955 E810.47572
